img/6/user-headliner.svg

<?xml version="1.0" encoding="UTF-8" standalone="no"?><svg viewBox="0 0 512 512" xmlns="http://www.w3.org/2000/svg" fill-rule="evenodd" clip-rule="evenodd" stroke-linejoin="round" stroke-miterlimit="2"><g fill-rule="nonzero"><path d="M512 256c0 141.387-114.613 256-256 256S0 397.387 0 256 114.613 0 256 0s256 114.613 256 256z" fill="#f92814"/><path d="M512 256c0-.829-51.202-49.473-51.202-49.473l-8.615.377-28.141-22.128-9.758 25.701-50.185-45.395-2.935 19.384 14.039 39.573-100.336-100.336L158.5 242.023l79.559 79.559L72.473 385.91l117.465 117.465C211.016 508.992 233.156 512 256 512c141.387 0 256-114.613 256-256z" fill="#db0404"/><path d="M298.016 181.207c0 45.848-37.168 83.016-83.016 83.016-45.848 0-83.016-37.168-83.016-83.016 0-45.848 37.168-83.016 83.016-83.016 45.848 0 83.016 37.168 83.016 83.016zM72.473 385.91h285.054C346.672 316.961 287.004 264.223 215 264.223c-72.004 0-131.672 52.738-142.527 121.687z" fill="#fff"/><path d="M215 98.191c-.441 0-.875.028-1.316.036v165.961c.441.007.875.035 1.316.035 45.848 0 83.016-37.168 83.016-83.016 0-45.848-37.168-83.016-83.016-83.016zM215 264.223c-.437 0-.875.007-1.316.011V385.91h143.843C346.672 316.961 287.004 264.223 215 264.223z" fill="#dce1eb"/></g><g transform="translate(256.828 140.601) scale(.40625)"><path d="M461.546 358.494l27.077-177.024-69.659 70.819-19.428-123.527-88.662 106.383L256 82.009l-54.874 153.136-88.662-106.383-19.428 123.527-69.659-70.819 27.077 177.024v47.434h411.092v-47.434z" fill="#ffdb0c" fill-rule="nonzero"/><path d="M461.546 358.494l27.077-177.024-69.659 70.819-19.428-123.527-88.662 106.383L256 82.009v323.919h205.546v-47.434z" fill="#fbbf00" fill-rule="nonzero"/><path fill="#ffa900" d="M50.45 358.497h411.09v94.87H50.45z"/><path fill="#f80" d="M256 358.497h205.55v94.87H256z"/><circle cx="23.377" cy="181.467" r="23.377" fill="#6b93ff"/><circle cx="112.46" cy="128.757" r="23.377" fill="#4a7aff"/><circle cx="256" cy="82.007" r="23.377" fill="#3e71ff"/><circle cx="488.62" cy="181.467" r="23.377" fill="#0053bf"/><circle cx="399.54" cy="128.757" r="23.377" fill="#005ed8"/></g></svg>

<?xml version="1.0" encoding="UTF-8" standalone="no"?>
<!DOCTYPE svg PUBLIC "-//W3C//DTD SVG 1.1//EN" "http://www.w3.org/Graphics/SVG/1.1/DTD/svg11.dtd">
<svg width="100%" height="100%" viewBox="0 0 512 512" version="1.1" xmlns="http://www.w3.org/2000/svg" xmlns:xlink="http://www.w3.org/1999/xlink" xml:space="preserve" xmlns:serif="http://www.serif.com/" style="fill-rule:evenodd;clip-rule:evenodd;stroke-linejoin:round;stroke-miterlimit:2;">
    <g id="user">
        <path d="M512,256C512,397.387 397.387,512 256,512C114.613,512 0,397.387 0,256C0,114.613 114.613,0 256,0C397.387,0 512,114.613 512,256Z" style="fill:rgb(249,40,20);fill-rule:nonzero;"/>
        <path d="M512,256C512,255.171 460.798,206.527 460.798,206.527L452.183,206.904L424.042,184.776L414.284,210.477L364.099,165.082L361.164,184.466L375.203,224.039L274.867,123.703L158.5,242.023L238.059,321.582L72.473,385.91L189.938,503.375C211.016,508.992 233.156,512 256,512C397.387,512 512,397.387 512,256Z" style="fill:rgb(219,4,4);fill-rule:nonzero;"/>
        <path d="M298.016,181.207C298.016,227.055 260.848,264.223 215,264.223C169.152,264.223 131.984,227.055 131.984,181.207C131.984,135.359 169.152,98.191 215,98.191C260.848,98.191 298.016,135.359 298.016,181.207Z" style="fill:white;fill-rule:nonzero;"/>
        <path d="M72.473,385.91L357.527,385.91C346.672,316.961 287.004,264.223 215,264.223C142.996,264.223 83.328,316.961 72.473,385.91Z" style="fill:white;fill-rule:nonzero;"/>
        <path d="M215,98.191C214.559,98.191 214.125,98.219 213.684,98.227L213.684,264.188C214.125,264.195 214.559,264.223 215,264.223C260.848,264.223 298.016,227.055 298.016,181.207C298.016,135.359 260.848,98.191 215,98.191Z" style="fill:rgb(220,225,235);fill-rule:nonzero;"/>
        <path d="M215,264.223C214.563,264.223 214.125,264.23 213.684,264.234L213.684,385.91L357.527,385.91C346.672,316.961 287.004,264.223 215,264.223Z" style="fill:rgb(220,225,235);fill-rule:nonzero;"/>
    </g>
    <g id="crown" transform="matrix(0.406252,0,0,0.406252,256.828,140.601)">
        <path d="M461.546,358.494L488.623,181.47L418.964,252.289L399.536,128.762L310.874,235.145L256,82.009L201.126,235.145L112.464,128.762L93.036,252.289L23.377,181.47L50.454,358.494L50.454,405.928L461.546,405.928L461.546,358.494Z" style="fill:rgb(255,219,12);fill-rule:nonzero;"/>
        <path d="M461.546,358.494L488.623,181.47L418.964,252.289L399.536,128.762L310.874,235.145L256,82.009L256,405.928L461.546,405.928L461.546,358.494Z" style="fill:rgb(251,191,0);fill-rule:nonzero;"/>
        <rect x="50.45" y="358.497" width="411.09" height="94.87" style="fill:rgb(255,169,0);"/>
        <g>
            <rect x="256" y="358.497" width="205.55" height="94.87" style="fill:rgb(255,136,0);"/>
            <circle cx="23.377" cy="181.467" r="23.377" style="fill:rgb(107,147,255);"/>
        </g>
        <circle cx="112.46" cy="128.757" r="23.377" style="fill:rgb(74,122,255);"/>
        <circle cx="256" cy="82.007" r="23.377" style="fill:rgb(62,113,255);"/>
        <circle cx="488.62" cy="181.467" r="23.377" style="fill:rgb(0,83,191);"/>
        <circle cx="399.54" cy="128.757" r="23.377" style="fill:rgb(0,94,216);"/>
    </g>
</svg>
